X:1
T:Reichsverweser
C:traditionell
A:Schwaben
%%textfont Helvetica-Narrow 10pt
%%begintext align
B:"Die Sackpfyf schoen Macht siss gethoen", 43 Volkstaenze u. Schaeferlieder aus Schwaben, compilation G.Balling, publisher Schwaebischer Albverein, Stuttgart 1997
%%endtext
Z:abc transcription Simon Wascher
M:2/4
L:1/8
K:G
d |\
e>d BG | FF Fd | e>d cA | GG G2 |
gg g2 | ee e2 | df/e/ d/c/B/A/ | GG G :|
|: G |\
Bd ^cd | ed ed | fe d=c | cB B2 |
Bd ^cd | ed ed | fe d=c | Bd B2 ||
|:\
dc A2 | ed B2 | dc AF | GB d2 |
dc A2 | ed B2 | dc AF | GB/d/ gz :|
%%wordsfont Times-Italic 11pt
W:aus Simon Waschers TradArchiv
